abel/img/choose1.svg

<svg width="230" height="54" viewBox="0 0 230 54" fill="none" xmlns="http://www.w3.org/2000/svg">
<path d="M3.95508 44V11.1875H0V1.22656H15.1758V44H3.95508ZM21.5918 53.9609L27.3633 32.8965H38.5254L29.4727 53.9609H21.5918ZM40.0781 32.0469C41.5039 32.9062 42.8711 33.5605 44.1797 34.0098C45.5078 34.4395 46.7871 34.6543 48.0176 34.6543C49.9121 34.6543 51.4648 34.2051 52.6758 33.3066C53.8867 32.4082 54.4922 31.2754 54.4922 29.9082C54.4922 28.0918 53.8184 26.6953 52.4707 25.7188C51.123 24.7422 49.1992 24.2539 46.6992 24.2539C45.8008 24.2539 44.8242 24.3516 43.7695 24.5469C42.7148 24.7422 41.5625 25.0449 40.3125 25.4551L43.9746 1.22656H65.332V10.6309H52.0312L51.0059 16.7539C51.6699 16.6172 52.3047 16.5195 52.9102 16.4609C53.5156 16.3828 54.1016 16.3438 54.668 16.3438C58.3008 16.3438 61.3281 17.584 63.75 20.0645C66.1719 22.5254 67.3828 25.6211 67.3828 29.3516C67.3828 33.9219 65.8008 37.6523 62.6367 40.543C59.4727 43.4141 55.332 44.8496 50.2148 44.8496C48.2617 44.8496 46.2988 44.6152 44.3262 44.1465C42.373 43.6973 40.3809 43.0039 38.3496 42.0664L40.0781 32.0469ZM80.127 22.291C80.127 26.7246 80.332 29.752 80.7422 31.373C81.1719 32.9941 81.9043 33.8047 82.9395 33.8047C83.9551 33.8047 84.668 33.0137 85.0781 31.4316C85.4883 29.8496 85.6934 26.8027 85.6934 22.291C85.6934 17.7598 85.4883 14.7031 85.0781 13.1211C84.668 11.5391 83.9551 10.748 82.9395 10.748C81.9043 10.748 81.1719 11.5586 80.7422 13.1797C80.332 14.8008 80.127 17.8379 80.127 22.291ZM69.1992 22.6426C69.1992 15.6504 70.4102 10.1914 72.832 6.26562C75.2734 2.33984 78.6426 0.376953 82.9395 0.376953C87.2168 0.376953 90.5664 2.33984 92.9883 6.26562C95.4102 10.1914 96.6211 15.6504 96.6211 22.6426C96.6211 29.6348 95.4102 35.084 92.9883 38.9902C90.5859 42.8965 87.2363 44.8496 82.9395 44.8496C78.623 44.8496 75.2539 42.8965 72.832 38.9902C70.4102 35.084 69.1992 29.6348 69.1992 22.6426ZM109.717 22.291C109.717 26.7246 109.922 29.752 110.332 31.373C110.762 32.9941 111.494 33.8047 112.529 33.8047C113.545 33.8047 114.258 33.0137 114.668 31.4316C115.078 29.8496 115.283 26.8027 115.283 22.291C115.283 17.7598 115.078 14.7031 114.668 13.1211C114.258 11.5391 113.545 10.748 112.529 10.748C111.494 10.748 110.762 11.5586 110.332 13.1797C109.922 14.8008 109.717 17.8379 109.717 22.291ZM98.7891 22.6426C98.7891 15.6504 100 10.1914 102.422 6.26562C104.863 2.33984 108.232 0.376953 112.529 0.376953C116.807 0.376953 120.156 2.33984 122.578 6.26562C125 10.1914 126.211 15.6504 126.211 22.6426C126.211 29.6348 125 35.084 122.578 38.9902C120.176 42.8965 116.826 44.8496 112.529 44.8496C108.213 44.8496 104.844 42.8965 102.422 38.9902C100 35.084 98.7891 29.6348 98.7891 22.6426ZM125.186 53.9609L130.957 32.8965H142.119L133.066 53.9609H125.186ZM154.131 22.291C154.131 26.7246 154.336 29.752 154.746 31.373C155.176 32.9941 155.908 33.8047 156.943 33.8047C157.959 33.8047 158.672 33.0137 159.082 31.4316C159.492 29.8496 159.697 26.8027 159.697 22.291C159.697 17.7598 159.492 14.7031 159.082 13.1211C158.672 11.5391 157.959 10.748 156.943 10.748C155.908 10.748 155.176 11.5586 154.746 13.1797C154.336 14.8008 154.131 17.8379 154.131 22.291ZM143.203 22.6426C143.203 15.6504 144.414 10.1914 146.836 6.26562C149.277 2.33984 152.646 0.376953 156.943 0.376953C161.221 0.376953 164.57 2.33984 166.992 6.26562C169.414 10.1914 170.625 15.6504 170.625 22.6426C170.625 29.6348 169.414 35.084 166.992 38.9902C164.59 42.8965 161.24 44.8496 156.943 44.8496C152.627 44.8496 149.258 42.8965 146.836 38.9902C144.414 35.084 143.203 29.6348 143.203 22.6426ZM183.721 22.291C183.721 26.7246 183.926 29.752 184.336 31.373C184.766 32.9941 185.498 33.8047 186.533 33.8047C187.549 33.8047 188.262 33.0137 188.672 31.4316C189.082 29.8496 189.287 26.8027 189.287 22.291C189.287 17.7598 189.082 14.7031 188.672 13.1211C188.262 11.5391 187.549 10.748 186.533 10.748C185.498 10.748 184.766 11.5586 184.336 13.1797C183.926 14.8008 183.721 17.8379 183.721 22.291ZM172.793 22.6426C172.793 15.6504 174.004 10.1914 176.426 6.26562C178.867 2.33984 182.236 0.376953 186.533 0.376953C190.811 0.376953 194.16 2.33984 196.582 6.26562C199.004 10.1914 200.215 15.6504 200.215 22.6426C200.215 29.6348 199.004 35.084 196.582 38.9902C194.18 42.8965 190.83 44.8496 186.533 44.8496C182.217 44.8496 178.848 42.8965 176.426 38.9902C174.004 35.084 172.793 29.6348 172.793 22.6426ZM213.311 22.291C213.311 26.7246 213.516 29.752 213.926 31.373C214.355 32.9941 215.088 33.8047 216.123 33.8047C217.139 33.8047 217.852 33.0137 218.262 31.4316C218.672 29.8496 218.877 26.8027 218.877 22.291C218.877 17.7598 218.672 14.7031 218.262 13.1211C217.852 11.5391 217.139 10.748 216.123 10.748C215.088 10.748 214.355 11.5586 213.926 13.1797C213.516 14.8008 213.311 17.8379 213.311 22.291ZM202.383 22.6426C202.383 15.6504 203.594 10.1914 206.016 6.26562C208.457 2.33984 211.826 0.376953 216.123 0.376953C220.4 0.376953 223.75 2.33984 226.172 6.26562C228.594 10.1914 229.805 15.6504 229.805 22.6426C229.805 29.6348 228.594 35.084 226.172 38.9902C223.77 42.8965 220.42 44.8496 216.123 44.8496C211.807 44.8496 208.438 42.8965 206.016 38.9902C203.594 35.084 202.383 29.6348 202.383 22.6426Z" fill="black"/>
</svg>

<svg width="230" height="54" fill="none" xmlns="http://www.w3.org/2000/svg"><path d="M3.955 44V11.187H0v-9.96h15.176V44H3.956zm17.637 9.96l5.771-21.063h11.162L29.473 53.96h-7.881zm18.486-21.913c1.426.86 2.793 1.514 4.102 1.963 1.328.43 2.607.644 3.838.644 1.894 0 3.447-.449 4.658-1.347 1.21-.899 1.816-2.032 1.816-3.399 0-1.816-.674-3.213-2.021-4.19-1.348-.976-3.272-1.464-5.772-1.464-.898 0-1.875.098-2.93.293a26.874 26.874 0 0 0-3.456.908l3.662-24.228h21.357v9.404h-13.3l-1.026 6.123a18.118 18.118 0 0 1 1.904-.293 13.742 13.742 0 0 1 1.758-.117c3.633 0 6.66 1.24 9.082 3.72 2.422 2.461 3.633 5.557 3.633 9.288 0 4.57-1.582 8.3-4.746 11.191-3.164 2.871-7.305 4.307-12.422 4.307a25.4 25.4 0 0 1-5.889-.703c-1.953-.45-3.945-1.143-5.976-2.08l1.728-10.02zm40.049-9.756c0 4.434.205 7.461.615 9.082.43 1.621 1.162 2.432 2.197 2.432 1.016 0 1.729-.791 2.14-2.373.41-1.582.614-4.63.614-9.141 0-4.531-.205-7.588-.615-9.17-.41-1.582-1.123-2.373-2.139-2.373-1.035 0-1.767.81-2.197 2.432-.41 1.62-.615 4.658-.615 9.111zm-10.928.352c0-6.993 1.211-12.452 3.633-16.377C75.273 2.34 78.642.377 82.94.377c4.277 0 7.626 1.963 10.048 5.889 2.422 3.925 3.633 9.384 3.633 16.377 0 6.992-1.21 12.441-3.633 16.347-2.402 3.907-5.752 5.86-10.049 5.86-4.316 0-7.685-1.953-10.107-5.86-2.422-3.906-3.633-9.355-3.633-16.347zm40.518-.352c0 4.434.205 7.461.615 9.082.43 1.621 1.162 2.432 2.197 2.432 1.016 0 1.729-.791 2.139-2.373.41-1.582.615-4.63.615-9.141 0-4.531-.205-7.588-.615-9.17-.41-1.582-1.123-2.373-2.139-2.373-1.035 0-1.767.81-2.197 2.432-.41 1.62-.615 4.658-.615 9.111zm-10.928.352c0-6.993 1.211-12.452 3.633-16.377 2.441-3.926 5.81-5.889 10.107-5.889 4.278 0 7.627 1.963 10.049 5.889 2.422 3.925 3.633 9.384 3.633 16.377 0 6.992-1.211 12.441-3.633 16.347-2.402 3.907-5.752 5.86-10.049 5.86-4.316 0-7.685-1.953-10.107-5.86-2.422-3.906-3.633-9.355-3.633-16.347zm26.397 31.318l5.771-21.064h11.162l-9.053 21.064h-7.88zm28.945-31.67c0 4.434.205 7.461.615 9.082.43 1.621 1.162 2.432 2.197 2.432 1.016 0 1.729-.791 2.139-2.373.41-1.582.615-4.63.615-9.141 0-4.531-.205-7.588-.615-9.17-.41-1.582-1.123-2.373-2.139-2.373-1.035 0-1.767.81-2.197 2.432-.41 1.62-.615 4.658-.615 9.111zm-10.928.352c0-6.993 1.211-12.452 3.633-16.377 2.441-3.926 5.81-5.889 10.107-5.889 4.278 0 7.627 1.963 10.049 5.889 2.422 3.925 3.633 9.384 3.633 16.377 0 6.992-1.211 12.441-3.633 16.347-2.402 3.907-5.752 5.86-10.049 5.86-4.316 0-7.685-1.953-10.107-5.86-2.422-3.906-3.633-9.355-3.633-16.347zm40.518-.352c0 4.434.205 7.461.615 9.082.43 1.621 1.162 2.432 2.197 2.432 1.016 0 1.729-.791 2.139-2.373.41-1.582.615-4.63.615-9.141 0-4.531-.205-7.588-.615-9.17-.41-1.582-1.123-2.373-2.139-2.373-1.035 0-1.767.81-2.197 2.432-.41 1.62-.615 4.658-.615 9.111zm-10.928.352c0-6.993 1.211-12.452 3.633-16.377 2.441-3.926 5.81-5.889 10.107-5.889 4.278 0 7.627 1.963 10.049 5.889 2.422 3.925 3.633 9.384 3.633 16.377 0 6.992-1.211 12.441-3.633 16.347-2.402 3.907-5.752 5.86-10.049 5.86-4.316 0-7.685-1.953-10.107-5.86-2.422-3.906-3.633-9.355-3.633-16.347zm40.518-.352c0 4.434.205 7.461.615 9.082.429 1.621 1.162 2.432 2.197 2.432 1.016 0 1.729-.791 2.139-2.373.41-1.582.615-4.63.615-9.141 0-4.531-.205-7.588-.615-9.17-.41-1.582-1.123-2.373-2.139-2.373-1.035 0-1.768.81-2.197 2.432-.41 1.62-.615 4.658-.615 9.111zm-10.928.352c0-6.993 1.211-12.452 3.633-16.377 2.441-3.926 5.81-5.889 10.107-5.889 4.277 0 7.627 1.963 10.049 5.889 2.422 3.925 3.633 9.384 3.633 16.377 0 6.992-1.211 12.441-3.633 16.347-2.402 3.907-5.752 5.86-10.049 5.86-4.316 0-7.685-1.953-10.107-5.86-2.422-3.906-3.633-9.355-3.633-16.347z" fill="#000"/></svg>
